resources/icons/16px/ammunition.svg

<svg width="16" height="16" viewBox="0 0 16 16" fill="none" xmlns="http://www.w3.org/2000/svg">
<path d="M2.12598 1.10059C3.31055 2.04834 4 3.48291 4 5V13H0V5C0 3.48291 0.689453 2.04834 1.87402 1.10059L2 1L2.12598 1.10059Z" fill="black"/>
<path d="M8.12598 1.10059C9.31055 2.04834 10 3.48291 10 5V13H6V5C6 3.48291 6.68945 2.04834 7.87402 1.10059L8 1L8.12598 1.10059Z" fill="black"/>
<path d="M16 5C16 3.48291 15.3105 2.04834 14.126 1.10059L14 1L13.874 1.10059C12.6895 2.04834 12 3.48291 12 5V13H16V5Z" fill="black"/>
<path d="M4 15V14H0V15H4Z" fill="black"/>
<path d="M10 14V15H6V14H10Z" fill="black"/>
<path d="M16 15V14H12V15H16Z" fill="black"/>
</svg>

<svg xmlns="http://www.w3.org/2000/svg" viewBox="0 0 16 16">
  <path d="M2.126 1.1A5 5 0 0 1 4 5v8H0V5c0-1.517.69-2.952 1.874-3.9L2 1zM8.126 1.1A5 5 0 0 1 10 5v8H6V5c0-1.517.69-2.952 1.874-3.9L8 1zM16 5c0-1.517-.69-2.952-1.874-3.9L14 1l-.126.1A5 5 0 0 0 12 5v8h4zM4 15v-1H0v1zM10 14v1H6v-1zM16 15v-1h-4v1z"/>
</svg>
